<?xml version="1.0" encoding="UTF-8"?>
<map version="1.10" tiledversion="1.11.2" orientation="orthogonal" renderorder="right-down" width="50" height="10" tilewidth="16" tileheight="16" infinite="0" nextlayerid="5" nextobjectid="1">
 <tileset firstgid="1" source="..\tileset\dungeon_tiles.tsx"/>
 <layer id="3" name="Tile Layer 0" width="50" height="10">
  <data encoding="csv">
0,0,0,0,0,0,0,0,0,0,0,0,0,0,0,0,0,0,0,0,0,0,0,0,0,0,0,0,0,0,0,0,0,0,0,0,0,0,0,0,0,0,0,0,0,0,0,0,0,0,
0,0,0,0,0,0,0,0,0,0,0,0,0,0,0,0,0,0,0,0,0,0,0,0,0,0,0,0,0,0,0,0,0,0,0,0,0,0,0,0,0,0,0,0,0,258,258,258,0,0,
0,0,0,0,0,0,0,0,0,0,0,0,0,0,0,0,0,0,0,0,0,0,0,0,0,0,0,0,0,0,0,0,0,0,0,0,0,0,0,0,0,0,0,0,0,258,258,258,0,0,
0,0,0,0,0,0,0,0,0,0,0,0,0,0,0,0,0,0,0,0,0,0,0,0,0,0,0,0,0,0,0,0,0,0,0,0,0,0,0,0,0,0,0,0,0,377,377,377,0,0,
0,0,0,0,0,0,0,0,0,0,0,0,0,0,0,0,0,0,0,0,0,0,0,0,0,0,0,0,0,0,0,0,0,0,0,0,0,0,0,0,0,0,0,0,0,787,788,789,0,0,
0,0,0,0,0,0,0,0,0,0,0,0,0,0,0,0,0,0,0,0,0,0,0,0,0,0,0,0,0,0,0,0,0,0,0,0,0,0,0,0,0,0,0,0,0,0,0,0,0,0,
0,0,0,0,0,0,0,0,0,0,0,0,0,0,0,0,0,0,0,0,0,0,0,0,0,0,0,0,0,0,0,0,0,0,0,0,0,0,0,0,0,0,0,0,0,0,0,0,0,0,
0,0,0,0,0,0,0,0,0,0,0,0,0,0,0,0,0,0,0,0,0,0,0,0,0,0,0,0,0,0,0,0,0,0,0,0,0,0,0,0,0,0,0,0,0,0,0,0,0,0,
0,0,0,0,0,0,0,0,0,0,0,0,0,0,0,0,0,0,0,0,0,0,0,0,0,0,0,0,0,0,0,0,0,0,0,0,0,0,0,0,0,0,0,0,0,0,0,0,0,0,
0,0,0,0,0,0,0,0,0,0,0,0,0,0,0,0,0,0,0,0,0,0,0,0,0,0,0,0,0,0,0,0,0,0,0,0,0,0,0,0,0,0,0,0,0,0,0,0,0,0
</data>
 </layer>
 <layer id="1" name="Tile Layer 1" width="50" height="10">
  <data encoding="csv">
0,0,0,0,0,0,0,0,0,0,0,0,0,0,0,0,0,0,0,0,0,0,0,0,0,0,0,0,0,0,0,0,0,0,0,0,0,0,0,0,0,0,0,0,0,0,0,0,0,0,
13,12,11,299,299,299,299,299,299,298,299,299,299,299,299,299,300,298,299,299,299,299,299,299,299,300,298,299,299,299,299,299,299,300,555,556,556,556,556,556,556,556,556,556,555,558,559,560,487,488,
13,12,11,262,262,262,262,262,262,315,262,262,262,262,262,262,317,315,262,262,262,262,262,262,262,317,315,262,262,262,262,262,262,317,572,573,573,573,573,573,573,573,573,573,572,575,576,577,504,505,
13,12,11,262,262,262,262,262,262,315,262,262,262,262,262,262,317,315,262,262,262,262,262,262,262,317,315,262,262,262,262,262,262,317,589,590,590,590,590,590,590,590,590,590,589,592,593,594,521,522,
0,0,0,0,0,0,0,262,262,315,262,262,262,262,262,262,317,315,262,262,262,262,262,262,262,317,315,262,262,262,262,262,262,317,606,607,607,607,607,607,607,607,607,607,606,609,610,611,538,539,
54,54,54,54,54,54,54,54,262,315,262,262,262,262,262,262,317,315,262,262,262,262,262,262,262,317,315,262,262,262,262,262,262,262,262,262,262,262,262,262,262,262,262,262,262,262,262,262,262,263,
54,54,54,54,54,54,54,54,54,262,262,262,262,262,262,262,317,315,262,262,262,262,262,262,262,317,315,262,262,262,262,262,262,262,54,54,54,54,54,54,54,54,54,54,54,54,54,54,54,54,
54,54,54,54,54,54,54,54,54,54,262,262,262,262,262,262,317,315,262,262,262,262,262,262,262,317,315,262,262,262,262,262,262,262,54,54,54,54,54,54,54,54,54,54,54,54,54,54,54,54,
54,54,54,54,54,54,54,54,54,54,54,332,333,333,333,333,333,333,333,333,333,333,333,333,333,333,333,333,333,333,333,333,334,262,54,54,54,54,54,54,54,54,54,54,54,54,54,54,54,54,
54,54,54,54,54,54,54,54,54,54,54,54,275,0,0,0,0,0,0,0,0,0,0,0,0,0,0,0,0,0,0,0,0,0,54,54,54,54,54,54,54,54,54,54,54,54,54,54,54,54
</data>
 </layer>
 <layer id="4" name="1.5" width="50" height="10">
  <data encoding="csv">
87,87,87,87,87,87,87,87,87,87,87,87,87,87,87,87,87,87,87,87,87,87,87,87,87,87,87,87,87,87,87,87,87,87,87,87,87,87,87,87,87,87,87,87,87,87,87,87,87,87,
0,0,0,0,108,109,0,0,0,0,0,701,702,0,598,0,0,0,0,0,0,598,0,0,0,0,0,0,598,0,0,0,0,0,0,0,57,58,0,0,0,0,0,0,0,0,0,0,0,0,
0,0,0,0,125,126,0,0,0,0,0,718,719,0,0,0,0,0,720,0,0,0,0,735,736,0,0,0,0,0,0,703,0,0,0,0,74,75,0,0,0,0,0,0,0,0,0,0,0,0,
0,0,0,631,142,143,0,0,0,0,0,0,0,0,0,0,0,0,0,0,0,0,0,752,753,0,0,0,0,0,0,0,0,0,0,0,74,75,0,0,0,0,443,444,0,0,0,0,0,0,
36,36,36,36,36,36,36,21,0,0,0,0,0,0,0,0,0,0,0,0,0,0,0,0,0,0,0,0,0,0,0,0,0,0,0,0,91,92,0,0,566,567,460,461,0,0,0,0,0,0,
0,0,0,0,0,0,0,38,21,0,0,0,0,144,145,146,0,0,0,144,145,145,145,146,0,0,0,144,145,146,0,0,0,35,36,36,36,36,36,36,36,36,36,36,36,36,36,36,36,36,
0,0,0,0,0,0,0,0,38,21,0,0,0,0,0,0,0,0,0,0,0,0,0,0,0,0,0,668,669,0,0,0,0,52,0,0,0,0,0,0,0,0,0,0,0,0,0,0,0,0,
0,0,0,0,0,0,0,0,0,38,21,0,0,0,0,0,0,0,0,0,0,0,0,0,0,0,0,0,0,582,0,704,705,52,0,0,0,0,0,0,0,0,0,0,0,0,0,0,0,0,
0,0,0,0,0,0,0,0,0,0,38,21,0,0,0,0,0,0,0,0,617,618,581,0,0,0,0,649,650,599,0,721,722,52,0,0,0,0,0,0,0,0,0,0,0,0,0,0,0,0,
0,0,0,0,0,0,0,0,0,0,0,38,36,36,36,36,36,36,36,36,36,36,36,36,36,36,36,36,36,36,36,36,36,37,0,0,0,0,0,0,0,0,0,0,0,0,0,0,0,0
</data>
 </layer>
 <layer id="2" name="Collision" width="50" height="10">
  <data encoding="csv">
87,87,87,87,87,87,87,87,87,87,87,87,87,87,87,87,87,87,87,87,87,87,87,87,87,87,87,87,87,87,87,87,87,87,87,87,87,87,87,87,87,87,87,87,87,87,87,87,87,87,
13,0,0,0,0,0,0,0,0,0,0,0,0,0,0,0,0,0,0,0,0,0,0,0,0,0,0,0,0,0,0,0,0,0,0,0,0,0,0,0,0,0,0,0,0,0,0,0,0,488,
13,0,0,0,0,0,0,0,0,0,0,0,0,0,0,0,0,0,0,0,0,0,0,0,0,0,0,0,0,0,0,0,0,0,0,0,0,0,0,0,0,0,0,0,0,0,0,0,0,505,
13,0,0,0,0,0,0,0,0,0,0,0,0,0,0,0,0,0,0,0,0,0,0,0,0,0,0,0,0,0,0,0,0,0,0,0,0,0,0,0,0,0,0,0,0,0,0,0,0,522,
36,36,36,36,36,36,36,21,0,0,0,0,0,0,0,0,0,0,0,0,0,0,0,0,0,0,0,0,0,0,0,0,0,0,0,0,0,0,0,0,0,0,0,0,0,0,0,0,0,539,
0,0,0,0,0,0,0,38,21,0,0,0,0,144,145,146,0,0,0,144,145,145,145,146,0,0,0,144,145,146,0,0,0,35,36,36,36,36,36,36,36,36,36,36,36,36,36,36,36,36,
0,0,0,0,0,0,0,0,38,21,0,0,0,0,0,0,0,0,0,0,0,0,0,0,0,0,0,0,0,0,0,0,0,52,0,0,0,0,0,0,0,0,0,0,0,0,0,0,0,0,
0,0,0,0,0,0,0,0,0,38,21,0,0,0,0,0,0,0,0,0,0,0,0,0,0,0,0,0,0,0,0,0,0,52,0,0,0,0,0,0,0,0,0,0,0,0,0,0,0,0,
0,0,0,0,0,0,0,0,0,0,38,21,0,0,0,0,0,0,0,0,0,0,0,0,0,0,0,0,0,0,0,0,0,52,0,0,0,0,0,0,0,0,0,0,0,0,0,0,0,0,
0,0,0,0,0,0,0,0,0,0,0,38,36,36,36,36,36,36,36,36,36,36,36,36,36,36,36,36,36,36,36,36,36,37,0,0,0,0,0,0,0,0,0,0,0,0,0,0,0,0
</data>
 </layer>
</map>
