<?xml version="1.0" encoding="UTF-8"?>
<map version="1.10" tiledversion="1.11.2" orientation="orthogonal" renderorder="right-down" width="25" height="10" tilewidth="16" tileheight="16" infinite="0" nextlayerid="5" nextobjectid="1">
 <tileset firstgid="1" source="..\tileset\dungeon_tiles.tsx"/>
 <layer id="1" name="Tile Layer 1" width="25" height="10">
  <data encoding="csv">
87,87,87,87,87,87,87,87,87,87,87,87,87,87,87,87,87,87,87,87,87,87,87,87,87,
13,12,11,11,11,11,11,11,11,11,11,11,262,262,11,11,11,11,11,11,11,11,11,12,13,
13,12,11,11,11,11,11,11,11,11,11,262,262,262,262,11,11,11,11,11,11,11,11,12,13,
13,12,11,11,11,11,11,11,11,11,262,262,262,262,262,262,11,11,11,11,11,11,11,12,13,
13,12,11,11,11,11,11,11,11,262,262,262,262,262,262,262,262,11,11,11,11,11,11,12,13,
13,12,11,11,11,11,11,11,11,262,262,262,262,262,262,262,262,11,11,11,11,11,11,12,13,
13,12,11,11,11,11,11,11,11,11,262,262,262,262,262,262,11,11,11,11,11,11,11,12,13,
13,12,11,11,11,11,11,11,11,11,11,262,262,262,262,11,11,11,11,11,11,11,11,12,13,
13,12,11,11,11,11,11,11,11,11,11,11,262,262,11,11,11,11,11,11,11,11,11,12,13,
36,36,36,36,36,36,36,36,36,36,36,36,36,36,36,36,36,36,36,36,36,36,36,36,36
</data>
 </layer>
 <layer id="2" name="Tile Layer 2" width="25" height="10">
  <data encoding="csv">
0,0,0,0,0,0,0,0,0,0,0,0,0,0,0,0,0,0,0,0,0,0,0,0,0,
0,0,0,0,0,0,57,58,0,0,0,0,0,0,0,0,0,0,57,58,0,0,0,0,0,
0,0,0,0,0,0,74,75,0,0,0,0,0,0,0,0,0,0,74,75,0,0,0,0,0,
0,0,0,0,0,0,74,75,0,0,0,0,0,0,0,0,0,0,74,75,0,0,0,0,0,
0,0,0,0,0,0,74,75,0,0,0,0,0,0,0,0,0,0,74,75,0,0,0,0,0,
0,0,0,0,0,0,74,75,0,0,0,0,15,16,0,0,0,0,74,75,0,0,0,0,0,
0,0,0,0,0,0,74,75,0,0,0,0,32,33,0,0,0,0,74,75,0,0,0,0,0,
0,0,0,0,0,0,74,75,443,444,445,446,49,50,445,446,443,444,74,75,0,0,0,0,0,
0,0,631,0,0,0,91,92,460,461,462,463,66,67,462,463,460,461,91,92,0,0,631,0,0,
0,0,0,0,0,0,0,0,0,0,0,0,0,0,0,0,0,0,0,0,0,0,0,0,0
</data>
 </layer>
 <layer id="3" name="Tile Layer 3" width="25" height="10">
  <data encoding="csv">
0,0,0,0,0,0,0,0,0,0,0,0,0,0,0,0,0,0,0,0,0,0,0,0,0,
0,0,0,0,0,0,0,0,0,0,0,0,0,0,0,0,0,0,0,0,0,0,0,0,0,
0,0,0,0,0,0,0,0,0,0,0,0,0,0,0,0,0,0,0,0,0,0,0,0,0,
0,0,0,0,0,0,0,0,0,0,0,0,0,0,0,0,0,0,0,0,0,0,0,0,0,
0,0,0,0,0,0,0,0,0,0,0,0,397,398,0,0,0,0,0,0,0,0,0,0,0,
0,0,0,0,0,0,0,0,0,0,0,0,414,415,0,0,0,0,0,0,0,0,0,0,0,
0,0,0,0,0,0,0,0,0,0,0,0,431,432,0,0,0,0,0,0,0,0,0,0,0,
0,0,0,0,0,0,0,0,0,0,0,0,0,0,0,0,0,0,0,0,0,0,0,0,0,
0,0,0,0,0,0,0,0,0,0,0,0,0,0,0,0,0,0,0,0,0,0,0,0,0,
0,0,0,0,0,0,0,0,0,0,0,0,0,0,0,0,0,0,0,0,0,0,0,0,0
</data>
 </layer>
 <layer id="4" name="Collision" width="25" height="10">
  <data encoding="csv">
87,87,87,87,87,87,87,87,87,87,87,87,87,87,87,87,87,87,87,87,87,87,87,87,87,
13,0,0,0,0,0,0,0,0,0,0,0,0,0,0,0,0,0,0,0,0,0,0,0,13,
13,0,0,0,0,0,0,0,0,0,0,0,0,0,0,0,0,0,0,0,0,0,0,0,13,
13,0,0,0,0,0,0,0,0,0,0,0,0,0,0,0,0,0,0,0,0,0,0,0,13,
13,0,0,0,0,0,0,0,0,0,0,0,0,0,0,0,0,0,0,0,0,0,0,0,13,
13,0,0,0,0,0,0,0,0,0,0,0,0,0,0,0,0,0,0,0,0,0,0,0,13,
13,0,0,0,0,0,0,0,0,0,0,0,0,0,0,0,0,0,0,0,0,0,0,0,13,
13,0,0,0,0,0,0,0,0,0,0,0,0,0,0,0,0,0,0,0,0,0,0,0,13,
13,0,0,0,0,0,0,0,0,0,0,0,0,0,0,0,0,0,0,0,0,0,0,0,13,
36,36,36,36,36,36,36,36,36,36,36,36,36,36,36,36,36,36,36,36,36,36,36,36,36
</data>
 </layer>
</map>
